X:5
T:252. The Flowing Tide
S:Mike Rafferty
Z:Lesl
M:4/4
L:1/8
K:G
dB|:~G3B DGBD|GBdg b2ag|egdG B/c/dge|dB~AG EdBA|
~G3B DGBD|GBdg b2ag|egdG B/c/dge|1 dBAB ~G3z:|2 dBAB ~G3D||
|:~G3B AGed|~g3e dBAG|c2Bc ABG2|cABG AGEG|
DGBd B3B|cABG AGEG|DGB/c/d gdB2|1 DGFA ~G3D:|2 DGFA ~G3||

